X:1
T:Händel: Almira, HWV 1, "No, no, non voglio"
T:Act Two aria for Almira in c minor More at http://handel.ejmaurath.com/
T:Georg Friedrich Handel
T:Christian Feustking, after Giulio Panciero
T:Edward J. Maurath
Z:Edward J. Maurath
%%score 1 { 2 | 3 } { 4 | 5 } 6
L:1/8
Q:1/4=96
M:4/4
K:Eb
V:1 alto1 nm="Almira" snm="ALM"
V:2 treble nm="Harp" snm="Hrp."
V:3 bass 
V:4 treble nm="Harpsichord" snm="Hch."
V:5 bass 
V:6 bass nm="Violoncello" snm="Vlc."
V:1
"^96" z!f! c |: =Bcde d2 z c | =Bcde d2 z2 | z8 | z7 c | =Bcde d2 z e | fe/d/ ed/c/ c2 z c/f/ | %7
 B2 z g c2 z a | de gf/e/ e2 z e | eB z2 z4 | z3 g efga | defg cdef | =B2 z c GcBc | %13
 G e2 d/e/ fe/d/ ed/c/ | c2 z2 z4 | z8 |1 z3 d efga | fd/c/ Be cdef | dd/e/ fd gcfB | %19
 e e2 f/e/ dc/B/ =A>B | B2 z d edg=a | ^f=e/f/ d=A Bcd_e | =ABcd GABc | ^FG =Ad/c/ BG z g/f/ | %24
 ec B=A/G/ GGee | dc/B/ B=A/G/ G2 z c :|2 z8 |] %27
V:2
 [=B,DG][EG] |: [=B,DG]2 z2 [B,DG]=A[G=B][EGc] | [=B,DG]2 z2 [B,DG]=A[G=B][EGc] | AGFB GFE[DFA] | %4
 [A,CF]E[=B,D][DF_c] [E=c]2 z [EG] | [=B,DG][CEG][B,DG] z [B,DG]=A[G=B][EGc] | %6
 [DFB] z [CEG] z Cc/B/ [FA] F | EE/D/ E [B,EG] CC/B,/ C A, | DE[EG]B, E2 z [EG] | %9
 [EG][EG] z2 EF[EG]A | [DF][EG][DF][EG] [CE][DF][EG][FA] | [DG]2 z2 [CE]2 z2 | %12
 [=B,DG] z [G,CE][CF] [CEG]2 z2 | [D=B] [Ec]2 z [CFA]2 [=B,DG][DF]/[CE]/ | C2 z2 EF[EG]A | %15
 [B,D]E[DF]G [Ec][G,EG][EGc][=B,DF_c] |1 [Ec]2 z2 [Ec] z [Ge] z | [DB]2 z2 [DFA] z __Bc | %18
 [DFB]2 z2 G z [B,F] z | [G,Ec] z z2 [DFB] z [CF] z | [DB] z z2 [G,C]D[G,CE][Ec] | %21
 D z [=A,D^F] z [B,DG] z z2 | D2 z2 [G,B,E]2 z2 | D2 z2 [DG]=A[DGB][DG] | %24
 [Ec]ED[D^F] [B,G]2 [C=F=A]2 | [B,D]C[B,D][=A,CD^F] [B,DG]2 z2 :|2 [Ec]4 z4 |] %27
V:3
 G,C |: G,2 z [C,G,E] G,=A,=B,C | G,2 z [C,G,E] G,=A,=B,C | [F,C]G,[A,C]B, [E,G,B,]F,[G,B,]A, | %4
 F,C,G,G, [C,G,]2 z C | G,C,G,[C,G,E] G,=A,=B,C | B,F,G,G,, [C,E,G,]C/B,/ A, [F,A,] | %7
 G,G,/F,/ G, E, A,A,/G,/ A, F, | B,E,B,B,, [E,G,B,]2 z2 | z2 z B, [E,G,B,]F,[G,B,]A, | %10
 D,E,F,G, C,D,E,F, | [G,=B,]2 z [E,G,E] A,2 z [F,A,CF] | G,F,E,A, G,E,D,C, | %13
 [=B,,G,] [C,G,]2 _B,, A,,F,,G,,G,, | [C,,G,,E,]2 z D, [E,G,B,]F,[G,B,]A, | %15
 [D,F,]E,[F,A,]G, [E,G,]C,G,G,, |1 [C,G,]2 z G,, [C,G,]D,[E,B,]A,, | [B,,F,]2 z G, A,G,C=A, | %18
 B,2 z B,, [E,B,]A,D,G, | C,C/B,/ =A, F, B,E,[F,A,]F,, | [B,,F,]B,/=A,/ B, G, [C,E,]D,E,[C,G,] | %21
 [D,^F,=A,]=E,F,D, G,G,,/=A,,/ B,, C, | [D,^F,=A,]2 z [B,,B,] E,2 z [C,E,G,C] | %23
 [D,^F,=A,]2 z [F,A,D^F] [G,B,]A,B,[G,B,] | [C,G,]E,[D,G,B,][D,,=A,,^F,] [G,,D,]2 A,,2 | %25
 [B,,G,]C,[D,G,]D,, G,,2 z [E,CE] :|2 [C,G,]4 z4 |] %27
V:4
 z2 |: [=B,DG]2 z2 [B,DG]=A[G=B][EGc] | [=B,DG]2 z2 [B,DG]=A[G=B][EGc] | AGFB GFE[DFA] | %4
 [A,CF]E[=B,D][DF_c] [E=c]2 z [EG] | [=B,DG][CEG][B,DG] z [B,DG]=A[G=B][EGc] | %6
 [DFB] z [CEG] z Cc/B/ [FA] F | EE/D/ E [B,EG] CC/B,/ C A, | DE[EG]B, E2 z [EG] | %9
 [EG][EG] z2 EF[EG]A | [DF][EG][DF][EG] [CE][DF][EG][FA] | [DG]2 z2 [CE]2 z2 | %12
 [=B,DG] z [G,CE][CF] [CEG]2 z2 | [D=B] [Ec]2 z [CFA]2 [=B,DG][DF]/[CE]/ | C2 z2 EF[EG]A | %15
 [B,D]E[DF]G [Ec][G,EG][EGc][=B,DF_c] |1 [Ec]2 z2 [Ec] z [Ge] z | [DB]2 z2 [DFA] z __Bc | %18
 [DFB]2 z2 G z [B,F] z | [G,Ec] z z2 [DFB] z [CF] z | [DB] z z2 [G,C]D[G,CE][Ec] | %21
 D z [=A,D^F] z [B,DG] z z2 | D2 z2 [G,B,E]2 z2 | D2 z2 [DG]=A[DGB][DG] | %24
 [Ec]ED[D^F] [B,G]2 [C=F=A]2 | [B,D]C[B,D][=A,CD^F] [B,DG]2 z2 :|2 [Ec]4 z4 |] %27
V:5
 G,C |: G,2 z [C,G,E] G,=A,=B,C | G,2 z [C,G,E] G,=A,=B,C | [F,C]G,[A,C]B, [E,G,B,]F,[G,B,]A, | %4
 F,C,G,G, [C,G,]2 z C | G,C,G,[C,G,E] G,=A,=B,C | B,F,G,G,, [C,E,G,]C/B,/ A, [F,A,] | %7
 G,G,/F,/ G, E, A,A,/G,/ A, F, | B,E,B,B,, [E,G,B,]2 z2 | z2 z B, [E,G,B,]F,[G,B,]A, | %10
 D,E,F,G, C,D,E,F, | [G,=B,]2 z [E,G,E] A,2 z [F,A,CF] | G,F,E,A, G,E,D,C, | %13
 [=B,,G,] [C,G,]2 _B,, A,,F,,G,,G,, | [C,,G,,E,]2 z D, [E,G,B,]F,[G,B,]A, | %15
 [D,F,]E,[F,A,]G, [E,G,]C,G,G,, |1 [C,G,]2 z G,, [C,G,]D,[E,B,]A,, | [B,,F,]2 z G, A,G,C=A, | %18
 B,2 z B,, [E,B,]A,D,G, | C,C/B,/ =A, F, B,E,[F,A,]F,, | [B,,F,]B,/=A,/ B, G, [C,E,]D,E,[C,G,] | %21
 [D,^F,=A,]=E,F,D, G,G,,/=A,,/ B,, C, | [D,^F,=A,]2 z [B,,B,] E,2 z [C,E,G,C] | %23
 [D,^F,=A,]2 z [F,A,D^F] [G,B,]A,B,[G,B,] | [C,G,]E,[D,G,B,][D,,=A,,^F,] [G,,D,]2 A,,2 | %25
 [B,,G,]C,[D,G,]D,, G,,2 z [E,CE] :|2 [C,G,]4 z4 |] %27
V:6
"^Hidden continuo by\nEdward J. Maurath" G,C |: G,2 z C, G,=A,=B,C | G,2 z C, G,=A,=B,C | %3
 F,G,A,B, E,F,G,A, | F,C,G,G, C,2 z C | G,C,G,C G,=A,=B,C | B,F,G,G,, C,C/B,/ A,F, | %7
 G,G,/F,/ G,E, A,A,/G,/ A,F, | B,E,B,B,, E,2 z2 | z2 z B, E,F,G,A, | D,E,F,G, C,D,E,F, | %11
 G,2 z E, A,2 z F, | G,F,E,A, G,E,D,C, | =B,, C,2 _B,, A,,F,,G,,G,, | C,,2 z D, E,F,G,A, | %15
 D,E,F,G, E,C,G,G,, |1 C,2 z G,, C,D,E,A,, | B,,2 z G, A,G,C=A, | B,2 z B,, E,A,D,G, | %19
 C,C/B,/ =A,F, B,E,F,F,, | B,,B,/=A,/ B,G, C,D,E,C, | D,=E,^F,D, G,G,,/=A,,/ B,,C, | %22
 D,2 z B,, E,2 z C, | D,2 z ^F, G,=A,B,G, | C,E,D,D,, G,,2 =A,,2 | B,,C,D,D,, G,,2 z E, :|2 %26
 C,4 z4 |] %27

